X: 1
T: Polons, sexdregasamlingen del 1 nr 17
B: Sexdregasamlingen del 1 nr 17
B: http://www.smus.se/earkiv/fmk/browselarge.phplang=sw&katalogid=Ma12ax&bildnr=00006
O: Sexdrega, Vstergtland
R: Slngpolska
S: efter Johannes Bryngelsson
Z: 2008-05-31 av Nils L
M: 3/4
K: Dm
L: 1/16
d4 d2f2 e2d2 | e4 e2g2 f2e2 | f4 f2a2 g2f2 | e2d^c d4 D4 ::
a4 f2a2 g2f2 | g4 e2g2 f2e2 | a4 f2a2 g2f2 | g4 e2g2 f2e2 |
d4 d2f2 e2d2 | e4 e2g2 f2e2 | f4 f2a2 g2f2 | e2d^c d4 D4 :|
